wp-content/themes/blackfoot/assets/img/dashicon-waters.svg

<?xml version="1.0" encoding="UTF-8" standalone="no"?>
<svg width="20px" height="20px" viewBox="0 0 20 20" version="1.1" xmlns="http://www.w3.org/2000/svg" xmlns:xlink="http://www.w3.org/1999/xlink" xmlns:sketch="http://www.bohemiancoding.com/sketch/ns">
    <!-- Generator: Sketch 3.3.1 (12002) - http://www.bohemiancoding.com/sketch -->
    <title>Slice 1</title>
    <desc>Created with Sketch.</desc>
    <defs></defs>
    <g id="Page-1" stroke="none" stroke-width="1" fill="none" fill-rule="evenodd" sketch:type="MSPage">
        <path d="M3.08588407,16.7758355 L3.08477588,16.7758355 C2.05157559,16.7743154 1.0630722,16.101702 0.145492816,14.7762355 C-0.105696387,14.4125682 -0.0236905002,13.9079181 0.330190759,13.6495129 C0.683702622,13.3914878 1.17426036,13.4758495 1.42508017,13.8395167 C1.84212812,14.4422088 2.46862354,15.1608032 3.08588407,15.1608032 L3.08588407,15.1608032 C3.70351399,15.1608032 4.33259519,14.4422088 4.75112073,13.8395167 C4.75112073,13.8395167 4.75112073,13.8379967 4.75259831,13.8379967 C5.67313286,12.5110102 6.66459142,11.8387767 7.69779171,11.8387767 L7.69926929,11.8387767 C8.72508167,11.8402968 9.70915231,12.50379 10.6226683,13.8129162 C10.6282093,13.8216564 10.6355972,13.8307766 10.6415075,13.8379967 C11.0581861,14.4406888 11.6846815,15.1592831 12.3023114,15.1592831 L12.3023114,15.1592831 C12.9210495,15.1592831 13.5490226,14.4406888 13.9671787,13.8368567 C13.9671787,13.8368567 13.9671787,13.8353367 13.9686563,13.8353367 C14.8906684,12.5094901 15.8806494,11.8372567 16.9138497,11.8372567 L16.9168048,11.8372567 C17.9500051,11.8387767 18.9370309,12.5110102 19.8546103,13.8379967 C20.1057995,14.201664 20.0234243,14.7066941 19.6699124,14.9647192 C19.3178781,15.2231244 18.8258428,15.1383827 18.5746536,14.7747154 C18.1576056,14.1720234 17.5314796,13.453809 16.9153273,13.453809 L16.9138497,13.453809 C16.2962198,13.453809 15.665661,14.1720234 15.2471354,14.7762355 L15.2471354,14.7762355 C14.3266009,16.101702 13.3366199,16.7743154 12.303789,16.7743154 L12.3023114,16.7743154 C11.2761297,16.7743154 10.2935366,16.1093021 9.38038997,14.8001759 C9.37447964,14.7910558 9.36709172,14.7823156 9.36155078,14.7747154 C8.94450283,14.1720234 8.31689922,13.453809 7.69926929,13.453809 L7.69926929,13.453809 C7.08016179,13.453809 6.4510806,14.1720234 6.03255506,14.7762355 C6.03255506,14.7762355 6.03255506,14.7777555 6.03107747,14.7777555 C5.10906534,16.103222 4.11908436,16.7758355 3.08588407,16.7758355 L3.08588407,16.7758355 Z M3.08588407,11.8566371 L3.08477588,11.8566371 C2.05157559,11.8551171 1.0630722,11.1825036 0.145492816,9.85703711 C-0.105696387,9.49336983 -0.0236905002,8.98871974 0.330190759,8.73031458 C0.683702622,8.47038938 1.17426036,8.5566511 1.42508017,8.92031838 C1.84212812,9.52301043 2.46862354,10.2416048 3.08588407,10.2416048 L3.08588407,10.2416048 C3.70351399,10.2416048 4.33259519,9.52301043 4.75112073,8.91879835 C4.75112073,8.91879835 4.75112073,8.91879835 4.75112073,8.91727832 C5.67165527,7.59181181 6.66163625,6.91919836 7.69483654,6.91919836 L7.69631413,6.91919836 C8.7221265,6.91919836 9.70619715,7.58421166 10.6197132,8.89371784 C10.6256235,8.90245802 10.632642,8.9115782 10.6385524,8.91879835 C11.0556003,9.5214904 11.6817263,10.2400848 12.2993563,10.2400848 L12.2993563,10.2400848 C12.9184638,10.2400848 13.5460674,9.5214904 13.9645929,8.91879835 C13.9645929,8.91879835 13.9645929,8.91727832 13.9660705,8.91727832 C14.8880826,7.59181181 15.8776942,6.91919836 16.9108945,6.91919836 L16.9138497,6.91919836 C17.94705,6.92071839 18.9340758,7.59333184 19.8516552,8.92031838 C20.1028444,9.28398565 20.0204691,9.78863574 19.6669572,10.0470409 C19.3149229,10.3054461 18.8228876,10.2207044 18.5716984,9.85703711 C18.1546505,9.25434506 17.5285244,8.53575069 16.9123721,8.53575069 L16.9108945,8.53575069 C16.2932646,8.53575069 15.6627058,9.25434506 15.2441803,9.85855714 L15.2441803,9.85855714 C14.3236457,11.1855437 13.3340341,11.8581571 12.3008339,11.8581571 L12.2993563,11.8581571 C11.2731745,11.8581571 10.2905814,11.1931438 9.37743481,9.88363764 C9.37152447,9.87489746 9.36450595,9.86577728 9.35859562,9.85855714 C8.94154766,9.25586509 8.31394405,8.53727072 7.69631413,8.53727072 L7.69631413,8.53727072 C7.07720662,8.53727072 6.44960301,9.25586509 6.02959989,9.85855714 C6.02959989,9.85855714 6.02959989,9.85855714 6.02812231,9.86007717 C5.11054292,11.1840236 4.11908436,11.8566371 3.08588407,11.8566371 L3.08588407,11.8566371 Z M3.08588407,6.93857875 L3.08477588,6.93857875 C2.05157559,6.93857875 1.0630722,6.26482528 0.145492816,4.93935877 C-0.105696387,4.5753115 -0.0236905002,4.0706614 0.330190759,3.81263624 C0.683702622,3.55423108 1.17426036,3.63897277 1.42508017,4.00264004 C1.84212812,4.6053321 2.46862354,5.32354646 3.08588407,5.32354646 L3.08588407,5.32354646 C3.70351399,5.32354646 4.33259519,4.60647212 4.75112073,4.00264004 C4.75112073,4.00264004 4.75112073,4.00112001 4.75259831,4.00112001 C5.67313286,2.67413348 6.66459142,2.00152003 7.69779171,2.00152003 L7.69926929,2.00152003 C8.72508167,2.00152003 9.70915231,2.66653333 10.6226683,3.9756595 C10.6282093,3.98477969 10.6355972,3.99351986 10.6415075,4.00112001 C11.0581861,4.60381206 11.6846815,5.32202643 12.3023114,5.32202643 L12.3023114,5.32202643 C12.9199414,5.32202643 13.5490226,4.60381206 13.9671787,4.00112001 C13.9671787,4.00112001 13.9671787,4.00112001 13.9686563,3.99959998 C14.8906684,2.67261345 15.882127,2 16.9138497,2 L16.9168048,2 C17.9500051,2.00152003 18.9370309,2.67413348 19.8546103,4.00112001 C20.1057995,4.36478729 20.0234243,4.86943738 19.6699124,5.12784254 C19.3164005,5.3858677 18.8258428,5.30150602 18.5746536,4.93783874 C18.1576056,4.33514669 17.5314796,3.61655232 16.9153273,3.61655232 L16.9138497,3.61655232 C16.2962198,3.61655232 15.665661,4.33666672 15.2456579,4.93935877 C15.2456579,4.93935877 15.2456579,4.9404988 15.2441803,4.9404988 C14.3236457,6.26634531 13.3340341,6.93705872 12.3023114,6.93705872 L12.3008339,6.93705872 C11.2746521,6.93705872 10.292059,6.27204542 9.37891239,4.96291925 C9.37300206,4.95417907 9.36561414,4.94505889 9.3600732,4.93783874 C8.94302524,4.33514669 8.31542163,3.61655232 7.69779171,3.61655232 L7.69779171,3.61655232 C7.07868421,3.61655232 6.44960301,4.33514669 6.03107747,4.93935877 C6.03107747,4.93935877 6.03107747,4.93935877 6.03107747,4.9404988 C5.10906534,6.26634531 4.11908436,6.93857875 3.08588407,6.93857875 L3.08588407,6.93857875 Z" id="Imported-Layers" fill="#FFFFFF" sketch:type="MSShapeGroup"></path>
    </g>
</svg>

<svg xmlns="http://www.w3.org/2000/svg" width="20" height="20"><title>Slice 1</title><desc>Created with Sketch.</desc><g fill="none"><path fill="#fff" d="M3.1 16.78h-.02c-1.03 0-2.02-.68-2.93-2-.26-.37-.17-.87.18-1.13.35-.26.84-.17 1.1.2.4.6 1.04 1.3 1.66 1.3.6 0 1.23-.7 1.65-1.3.92-1.34 1.9-2 2.95-2 1.03 0 2 .65 2.92 1.96 0 .02.02.03.02.04.42.6 1.04 1.32 1.66 1.32.62 0 1.25-.72 1.67-1.32.92-1.33 1.9-2 2.94-2h.02c1.03 0 2.02.67 2.93 2 .26.36.17.87-.18 1.12-.35.26-.84.18-1.1-.2-.4-.6-1.04-1.3-1.65-1.3-.62 0-1.25.7-1.67 1.32-.92 1.32-1.9 2-2.95 2-1.02 0-2-.67-2.92-1.98 0 0 0-.02-.02-.03-.42-.6-1.04-1.32-1.66-1.32-.62 0-1.25.72-1.67 1.33-.92 1.32-1.9 2-2.94 2zm0-4.92h-.02c-1.03 0-2.02-.68-2.93-2C-.1 9.5-.02 9 .33 8.73c.35-.26.84-.17 1.1.2.4.6 1.04 1.3 1.66 1.3.6 0 1.23-.7 1.65-1.3.92-1.34 1.9-2 2.94-2 1.02 0 2 .65 2.92 1.96 0 0 0 0 .02.02.42.6 1.04 1.32 1.66 1.32.62 0 1.25-.72 1.66-1.32.93-1.33 1.92-2 2.95-2 1.05 0 2.03.67 2.95 2 .25.36.17.87-.18 1.13-.36.26-.85.17-1.1-.2-.42-.6-1.04-1.3-1.66-1.3-.6 0-1.24.7-1.66 1.3-.92 1.34-1.9 2-2.94 2-1.03 0-2-.66-2.92-1.97 0 0-.02 0-.02-.02-.42-.6-1.05-1.32-1.66-1.32-.62 0-1.25.72-1.67 1.32-.92 1.32-1.9 2-2.94 2zm0-4.92h-.02c-1.03 0-2.02-.68-2.93-2-.26-.36-.17-.87.18-1.13.35-.25.84-.16 1.1.2.4.6 1.04 1.32 1.66 1.32.6 0 1.23-.7 1.65-1.32.92-1.33 1.9-2 2.95-2 1.03 0 2 .67 2.92 1.98 0 0 .02 0 .02.02.42.6 1.04 1.32 1.66 1.32.62 0 1.25-.72 1.67-1.32.92-1.33 1.9-2 2.94-2h.02c1.03 0 2.02.67 2.93 2 .26.36.17.87-.18 1.13-.35.26-.84.17-1.1-.2-.4-.6-1.04-1.3-1.65-1.3-.62 0-1.25.7-1.67 1.3-.93 1.34-1.92 2-2.95 2-1.03 0-2-.66-2.92-1.97 0 0 0 0-.02-.02-.42-.6-1.04-1.32-1.66-1.32-.62 0-1.25.72-1.67 1.32-.92 1.33-1.9 2-2.94 2z"/></g></svg>
